assets/github.svg

<svg viewBox="0 0 96 97" xmlns="http://www.w3.org/2000/svg"><path d="m27.943 55.379c-0.1845-0.1844-0.1845-0.3689 0-0.5533 0.3688-0.3689 0.8299-0.5072 1.3832-0.415s0.876 0.1845 0.9683 0.2767c0.6455 0.2766 1.3602 0.8991 2.144 1.8674s1.4063 1.6369 1.8675 2.0058c2.2132 1.8443 4.4725 1.9827 6.778 0.4149 0.1844-0.6455 0.4842-1.1988 0.8991-1.66 0.4149-0.4611 0.8069-0.7837 1.1758-0.9683 0.369-0.1844 1.0145-0.461 1.9367-0.8299-3.0433-0.2767-5.5101-0.807-7.4006-1.5908-1.8905-0.7839-3.3891-1.7752-4.4957-2.9741-1.4755-1.6599-2.3747-3.827-2.6974-6.5014-0.3229-2.6743-0.1154-5.1181 0.6225-7.3314 0.5533-1.3832 1.3371-2.6281 2.3515-3.7348-0.7378-2.3055-0.5994-4.9337 0.415-7.8847 2.951 0.1844 5.6253 1.1988 8.023 3.0432 4.6109-1.1989 9.4063-1.245 14.386-0.1383 0.6456-0.4611 1.637-1.0375 2.9741-1.7292 1.3371-0.6916 3.0202-1.0836 5.049-1.1758 0.3689 1.0144 0.6225 2.2132 0.7608 3.5965s0.0692 2.6744-0.2074 3.8732c2.1209 2.2133 3.2276 5.1643 3.3198 8.853 0 2.951-0.5072 5.3948-1.5216 7.3314s-2.8126 3.5504-5.3948 4.8414c-1.7521 0.8301-4.0576 1.3372-6.9164 1.5216 1.2912 0.6456 2.2364 1.3142 2.8358 2.0058 0.5995 0.6917 0.9914 1.7752 1.1759 3.2507v4.3574l0.1382 4.219c0.2767 0.4612 0.5995 0.8531 0.9684 1.1759s0.6916 0.5533 0.9683 0.6916c0.2766 0.1384 0.3689 0.3459 0.2766 0.6226-0.0922 0.2766-0.4611 0.4149-1.1066 0.4149-1.5678 0-2.8126-0.5533-3.7348-1.66-0.2767-0.4611-0.415-1.0143-0.415-1.6599v-6.6398c0-0.7377-0.1844-1.268-0.5533-1.5908s-0.7378-0.5302-1.1066-0.6225v8.7147c0 1.5677 0.1844 2.5821 0.5533 3.0432 0.3688 0.4611 0.5994 0.9223 0.6917 1.3833 0.0922 0.0922 0.023 0.1614-0.2076 0.2075-0.2304 0.046-0.6224-0.0231-1.1758-0.2075-1.1988-0.2767-2.0288-0.8992-2.4899-1.8675s-0.6916-2.0058-0.6916-3.1124v-8.5761h-1.7983v8.5763c0 1.1067-0.2306 2.1672-0.6917 3.1816-0.6455 1.2911-1.8444 1.9827-3.5965 2.0749-0.2766-0.0922-0.4149-0.1844-0.4149-0.2766 0.0922-0.0923 0.3688-0.5533 0.8299-1.3833 0.0922-0.1844 0.2076-0.5533 0.3459-1.1066 0.1384-0.5533 0.2075-1.1988 0.2075-1.9366v-8.7147c-0.3689 0.0922-0.7147 0.2996-1.0375 0.6225-0.3228 0.3228-0.4842 0.853-0.4842 1.5908v6.6397c0 0.6455-0.1383 1.1989-0.415 1.66-0.8299 1.1066-2.0749 1.66-3.7347 1.66-0.6456 0-1.0145-0.1383-1.1067-0.415-0.0923-0.1844-0.0692-0.3458 0.0692-0.4842 0.1384-0.1383 0.3459-0.2997 0.6225-0.4842 0.2767-0.1844 0.4611-0.3228 0.5534-0.4149 0.3688-0.2767 0.6454-0.6456 0.8299-1.1067 0.2767-0.3688 0.3458-1.3371 0.2075-2.9049-0.1384-1.5677-0.1614-2.5821-0.0692-3.0432-2.3978 0.83-4.8415 0.4149-7.3315-1.2449-0.7377-0.7378-1.4755-1.7984-2.2132-3.1816-0.5533-1.0145-1.66-2.2133-3.3198-3.5966z" fill="#0F0D1A"/></svg>

<svg width="96" height="97" viewBox="0 0 96 97" fill="none" xmlns="http://www.w3.org/2000/svg">
<path d="M27.9426 55.379C27.7581 55.1946 27.7581 55.0101 27.9426 54.8257C28.3114 54.4568 28.7725 54.3185 29.3258 54.4107C29.8791 54.5029 30.2018 54.5952 30.2941 54.6874C30.9396 54.964 31.6543 55.5865 32.4381 56.5548C33.2219 57.5231 33.8444 58.1917 34.3056 58.5606C36.5188 60.4049 38.7781 60.5433 41.0836 58.9755C41.268 58.33 41.5678 57.7767 41.9827 57.3155C42.3976 56.8544 42.7896 56.5318 43.1585 56.3472C43.5275 56.1628 44.173 55.8862 45.0952 55.5173C42.0519 55.2406 39.5851 54.7103 37.6946 53.9265C35.8041 53.1426 34.3055 52.1513 33.1989 50.9524C31.7234 49.2925 30.8242 47.1254 30.5015 44.451C30.1786 41.7767 30.3861 39.3329 31.124 37.1196C31.6773 35.7364 32.4611 34.4915 33.4755 33.3848C32.7377 31.0793 32.8761 28.4511 33.8905 25.5001C36.8415 25.6845 39.5158 26.6989 41.9135 28.5433C46.5244 27.3444 51.3198 27.2983 56.2995 28.405C56.9451 27.9439 57.9365 27.3675 59.2736 26.6758C60.6107 25.9842 62.2938 25.5922 64.3226 25.5C64.6915 26.5144 64.9451 27.7132 65.0834 29.0965C65.2217 30.4798 65.1526 31.7709 64.876 32.9697C66.9969 35.183 68.1036 38.134 68.1958 41.8227C68.1958 44.7737 67.6886 47.2175 66.6742 49.1541C65.6598 51.0907 63.8616 52.7045 61.2794 53.9955C59.5273 54.8256 57.2218 55.3327 54.363 55.5171C55.6542 56.1627 56.5994 56.8313 57.1988 57.5229C57.7983 58.2146 58.1902 59.2981 58.3747 60.7736V65.131L58.5129 69.35C58.7896 69.8112 59.1124 70.2031 59.4813 70.5259C59.8502 70.8487 60.1729 71.0792 60.4496 71.2175C60.7262 71.3559 60.8185 71.5634 60.7262 71.8401C60.634 72.1167 60.2651 72.255 59.6196 72.255C58.0518 72.255 56.807 71.7017 55.8848 70.595C55.6081 70.1339 55.4698 69.5807 55.4698 68.9351V62.2953C55.4698 61.5576 55.2854 61.0273 54.9165 60.7045C54.5476 60.3817 54.1787 60.1743 53.8099 60.082V68.7967C53.8099 70.3644 53.9943 71.3788 54.3632 71.8399C54.732 72.301 54.9626 72.7622 55.0549 73.2232C55.1471 73.3154 55.0779 73.3846 54.8473 73.4307C54.6169 73.4767 54.2249 73.4076 53.6715 73.2232C52.4727 72.9465 51.6427 72.324 51.1816 71.3557C50.7205 70.3874 50.49 69.3499 50.49 68.2433V59.6672H48.6917V68.2435C48.6917 69.3502 48.4611 70.4107 48 71.4251C47.3545 72.7162 46.1556 73.4078 44.4035 73.5C44.1269 73.4078 43.9886 73.3156 43.9886 73.2234C44.0808 73.1311 44.3574 72.6701 44.8185 71.8401C44.9107 71.6557 45.0261 71.2868 45.1644 70.7335C45.3028 70.1802 45.3719 69.5347 45.3719 68.7969V60.0822C45.003 60.1744 44.6572 60.3818 44.3344 60.7047C44.0116 61.0275 43.8502 61.5577 43.8502 62.2955V68.9352C43.8502 69.5807 43.7119 70.1341 43.4352 70.5952C42.6053 71.7018 41.3603 72.2552 39.7005 72.2552C39.0549 72.2552 38.686 72.1169 38.5938 71.8402C38.5015 71.6558 38.5246 71.4944 38.663 71.356C38.8014 71.2177 39.0089 71.0563 39.2855 70.8718C39.5622 70.6874 39.7466 70.549 39.8389 70.4569C40.2077 70.1802 40.4843 69.8113 40.6688 69.3502C40.9455 68.9814 41.0146 68.0131 40.8763 66.4453C40.7379 64.8776 40.7149 63.8632 40.8071 63.4021C38.4093 64.2321 35.9656 63.817 33.4756 62.1572C32.7379 61.4194 32.0001 60.3588 31.2624 58.9756C30.7091 57.9611 29.6024 56.7623 27.9426 55.379Z" fill="#0F0D1A"/>
</svg>
